X: 33416
T: Quilty, The
R: hornpipe
M: 4/4
K: Cdorian
K: BbMaj
|:F|D2 F>B d2 c>d|e>dc>B (3GAG F>E|D2 F>B d>BF>B|(3cdc (3BAG (3FGF (3EDC|
D2 F>B d2 (3Bcd|e2 c>A F2 F>E|D>FB>d c>BA>c|B2 F2 B,3:|
|:c|d>BA>B G>BF>B|D>BF>B d>BA>B|g>Bf>B e>d (3dcB|G>c (3c=Bc G>c (3cde|
d>BA>B G2 F>B|D>BF>B d2 A>B|g2 f>B e>Bd>B|c>AF>A B3:|

